X:475
T:Devlin's
T:Devlin's Favourite
R:jig
D:M\'orga
Z:hn-jig-475
M:6/8
L:1/8
K:Bm
dBB B2A | FBB B2c | dBA ^Ged | cAA ABc |
dcd ede | fbb afe | dcB AFE |1 FBB B2c :|2 FBB B3 ||
|: a3 f3 | ecB A2F | E2A cBc | Ace f2e |
dcd B2A | FBB Bcd | efg f2e |1 dBB B3 :|2 dBB B2c ||

